!!!OTL: MIR BLUEHET KEIN FRUEHLING
!!!ARE: Europa, Mitteleuropa, Deutschland, Rheinland
!!!SCT: B0472A
!!!YEM: Copyright 1995, estate of Helmut Schaffrath.
**kern
*ICvox
*Ivox
*M3/4
*k[f#]
*G:
{4d
=1
4b
8cc
8b
8a
8g
=2
8f#
8g
4a}
{4d
=3
2cc
8dd
8cc
=4
4cc
4b
8r}
{8g
=5
4ee
4.ee
8dd
=6
8dd
8cc
4cc}
{8dd
8cc
=7
2b
4ee
=8
4dd
4cc
4dd
=9
2b}
==
!!!AGN: Liebes - Lied, Leid, Klage
!!!ONB: ESAC (Essen Associative Code) Database: BOEHME
!!!AMT: simple triple
!!!AIN: vox
!!!EED: Helmut Schaffrath
!!!EEV: 1.0
*-
